KINDER
CUT[ES KAM EIN MANN VON NINIVE]
REG[Europa, Mitteleuropa, Deutschland, Dresden]
KEY[K2268  16  G 2/4]
MEL[-5_  1_1_1_3_  1_1_-5_0_
    2_.1-7_-6_  -5_3_1_
    -5_  1_1_1_3_  1_1_-5_0_
    2_.1-7_-6_  -5_3_1_ //] >>
FCT[Kinder - Lied, Reigen, Tanz - Spiel]
